X:0558
T:John O' Badenyond.
M:C
L:1/8
Q:1/4=120
N:bar 11 is printed |b>ge>g Tb>af>d|
I: :: :|
Z:Jack Campin * www.campin.me.uk * 2009
K:B Minor
d| B>AFA  TB>AF>c|d>ed>B A3d | B<Bd>e  f>ed>f|B<Bd>e    f3
a| b>fa>e  f>de>B|d>AB>F d3e | f>de>B  d>Ad>F|E<EF>A    B3::
a|Tb>af>a Tb>af>b|a>fe>f a3d'| b>ge>a Tb>af>d|B/B/B d>e f3
a| b>fa>e  f>de>B|d>Ad>F d3e |Tf>de>B  d>Ad>F|E<EF>A    B3:|

